X: 13
T:High Reel, The
T:Duffy the Dancer
M:C|
L:1/8
R:reel
K:Amix
a2fa ecA2|cAeA fAeA|a2fa ecA2|Bcdc BGGB|
a2fa ecA2|(cdef g2fg|(3agf ge fdec|1Bcdc BGG2:|2Bcdc BGGB:|
|:(3cBA eA fAeA|(3cBA af ecBA|(3cBA eA fAeA|Bcdc BGGB|
(3cBA eA fAeA|cdef g2fg|(3agf ge fdec|Bcdc BGGB:||
